X:40
T:Valse gasconne de Lea Saint Pe
M:3/4
L:1/4
K:C
E|:G2F|E2D|CEG|c2B|d2c|B2A|1 GBA|G2E:|2 GAB|c2G||
ec/e/ c/G/|AGG|ec/e/ c/G/|AGg|f2e|d2c|BAB|1 dcG:|2 c2E||**
